teeny/solid/magsafe.svg

<svg viewBox="0 0 15 15" xmlns="http://www.w3.org/2000/svg"><g><path d="M12 0H3v3h9V0Z"/><path d="M14 4H1v6h3v2h1v3h1v-3h3v3h1v-3h1v-2h3V4Z"/></g></svg>

<svg width="15" height="15" viewBox="0 0 15 15" fill="none" xmlns="http://www.w3.org/2000/svg">
<path d="M12 0H3V3H12V0Z" fill="black"/>
<path d="M14 4H1V10H4V12H5V15H6V12H9V15H10V12H11V10H14V4Z" fill="black"/>
</svg>
